!!!OTL: "Gottesgericht" ZU FRANKFURT DA STEHET EIN WIRTSHAUS
!!!ARE: Europa, Mitteleuropa, Deutschland, Niederrhein
!!!SCT: Z1002
!!!YEM: Copyright 1995, estate of Helmut Schaffrath.
**kern
*ICvox
*Ivox
*M6/8
*k[b-e-]
*g:
{8d
=1
8g
8f#
8g
8a
8g
8a
=2
8b-
8g
8r
4.a
=3
4b-
8cc
4dd}
{16dd
16cc
=4
8b-
8a
8g
8a
8g
8f#
=5
4g
4.r}
{8d
=6
8g
8f#
8g
8a
8g
8a
=7
8b-
8g
8r
4.a
=8
4b-
8cc
4dd}
{16dd
16cc
=9
8b-
8a
8g
8f#
8g
8a
=10
4.g
4r}
==
!!!AGN: Romanze, Ballade, Frankfurter Sage
!!!ONB: ESAC (Essen Associative Code) Database: ZUCCAL
!!!AMT: compound duple
!!!AIN: vox
!!!EED: Helmut Schaffrath
!!!EEV: 1.0
*-
